X: 170
T: Dainty Davy
N: "a Scots Air" and "same name" handwritten to right of title.
P: Longways for as many as will
%R: reel
B: "The Dancing-Master: Containing Directions and Tunes for Dancing" printed by W. Pearson for John Walsh, London ca. 1709
S: 7: DMDfD http://digital.nls.uk/special-collections-of-printed-music/pageturner.cfm?id=89751228 p.292
Z: 2013 John Chambers <jc:trillian.mit.edu>
N: Repeats added to satisfy the dance instructions.
M: C|
L: 1/8
K: F % and Dm
% - - - - - - - - - - - - - - - - - - - - - - - - -
f2 |\
c3 B A2 G2 | F2 (ED) F4 | F2 c2 (AB) (cA) | F2 c2 A2 f2 |\
c3 B A2 G2 | F2 (ED) F3 e | (fe) (fd) e2 (d^c) | d4 d2 :|
|: e2 |\
fga2 fga2 | fg a2 a2 gf | ef g2 ef g2 | ef g2 g2 fe |\
fg a2 fg a2 | fg a2 a2 gf | (gf) (ed) e2 (d^c) | d4 d2 :|
% - - - - - - - - - - - - - - - - - - - - - - - - -
%%begintext align
%% The 1. cu. clap hands and cross over below the 2. cu. and turn to your own sides .| The 2. cu. do the
%% same :| The 1. cu. cross over below the 2. cu. and Figure through the 3d. cu. then Figure through the
%% 1. cu. and turn in the 2. cu. place. :| Each Strain twice.
%% [DMDfD]
%%endtext
%%sep 1 8 500

%%sep 1 1 500
%%sep 1 1 500
